!!!SOCIAL_FUNCTION:	songs of dances presented at makah day celebrations
!!!PDT:	1939
!!!OTL: No_63_Makah_Homatsa_Song.krn
!!!LANG: Non-Tone
!!!LING_GROUP: Wakashan
!!!REG: Pacific Northwest
**kern	**kern
*staff2	*staff1
=1-	=1-
*clefF4	*clefF4
*k[f#c#g#]	*k[f#c#g#]
*M3/4	*M3/4
2.r	2r
.	8c#\L
.	8c#\J
=2	=2
2.r	2c#\
.	8c#\L
.	8c#\J
=3||	=3||
*M2/4	*M2/4
8r	4c#\
8GG#/	.
8GG#/L	8c#\L
8GG#/J	8c#\J
=4!|:	=4!|:
8r	8c#\L
8GG#/	8B#\J
8GG#/L	8c#\
8GG#/J	8r
=5	=5
8GG#/L	4B#\
8GG#/J	.
8GG#/L	8B#\
8GG#/J	8r
=6	=6
8GG#/L	4e\
8GG#/J	.
8GG#/L	8e\L
8GG#/J	[8e\J
=7	=7
8GG#/L	4.e\]
8GG#/J	.
8GG#/L	.
8GG#/J	8e\
=8	=8
8GG#/L	8e\L
8GG#/J	[8c#\J
8GG#/L	8c#\L]
8GG#/J	8c#\J
=9	=9
8GG#/L	4.c#\
8GG#/J	.
8GG#/L	.
8GG#/J	8c#\
=10	=10
8GG#/L	4c#\
8GG#/J	.
8GG#/L	16B#\
.	16r
8GG#/J	8e\
=11	=11
8GG#/L	4.B\
8GG#/J	.
8GG#/L	.
8GG#/J	8r
=12	=12
8GG#/L	4e\
8GG#/J	.
8GG#/L	8.e\L
8GG#/J	.
.	16B\Jk
=13	=13
8GG#/L	4.B\
8GG#/J	.
8GG#/L	.
8GG#/J	8B\
=14	=14
8GG#/L	4c#\
8GG#/J	.
8GG#/L	8B\L
8GG#/J	8A\J
=15	=15
8GG#/L	2B\
8GG#/J	.
8GG#/L	.
8GG#/J	.
=16	=16
8GG#/L	4r
8GG#/J	.
8GG#/L	4B\
8GG#/J	.
=17	=17
8GG#/L	2A\
8GG#/J	.
8GG#/L	.
8GG#/J	.
=18	=18
8GG#/L	4r
8GG#/J	.
8GG#/L	8r
8GG#/J	16r
.	16c#\
=19	=19
8GG#/L	4.c#\
8GG#/J	.
8GG#/L	.
8GG#/J	8B\
=20	=20
8GG#/	8A\L
8r	8E\J
8GG#/	8A\L
8r	8E\J
=21||	=21||
*M3/4	*M3/4
8GG#/L	16A\
.	16r
8GG#/J	16A\
.	16r
8GG#/L	8B\
8GG#/J	8r
4r	4B\
=22	=22
8GG#/L	8.e\L
8GG#/J	.
.	16B\Jk
8GG#/L	4..B\
8GG#/J	.
8GG#/L	.
8GG#/J	.
.	16B#\
=23	=23
8GG#/L	2c#\
8GG#/J	.
8GG#/L	.
8GG#/J	.
8GG#/L	8c#\L
8GG#/J	8c#\J
=24||	=24||
*M2/4	*M2/4
8GG#/L	8c#\
8GG#/J	8r
8GG#/L	8c#\L
8GG#/J	8c#\J
==	==
*-	*-
